!!!!SEGMENT: pl-kk--kk-i-7--060_asola-giovanni-matteo--o-altitudo-divitiarum.krn
!!!cenid: 16xx:899
!!!COM: Asola, Giovanni Matteo
!!!COM-rismid: pe20000387
!!!CDT: <=1532-1609/10/01
!!!CNT: Italian
!!!OTL: O altitudo divitiarum
!!!PDT:
!!!AGN: Sacred
!!!SMS-siglum: PL-Kk
!!!SMS-shelfmark: Kk.I.7
!!!SMS-shelfwork: 060 W
!!!SMS-variant:
!!!SMS-altvar:
!!!NIFC-rismid: 300258137
!!!URL-scan: http://repozytorium.nifc.pl/skany/pl-kk-nut--i-7
!!!ONB-nifc: UWAGA: C (skan 0059, s. 111), A (0145, s.111), T(0222, s.107), B(0309, s.105). Następny utwór: Ave sanctissima Maria
**kern	**text	**kern	**text	**kern	**text	**kern	**text
*part4	*part4	*part3	*part3	*part2	*part2	*part1	*part1
*staff4	*staff4	*staff3	*staff3	*staff2	*staff2	*staff1	*staff1
*Ibass	*	*Itenor	*	*Ialto	*	*Ivox	*
*I"BASSVS.	*	*I"TENOR.	*	*I"ALTVS.	*	*I"CANTVS.	*
*I'B	*	*I'T	*	*I'A	*	*I'C	*
*clefF3	*	*clefC3	*	*clefC3	*	*clefC2	*
*k[b-]	*	*k[b-]	*	*k[b-]	*	*k[b-]	*
*F:	*	*F:	*	*F:	*	*F:	*
*M2/1	*	*M2/1	*	*M2/1	*	*M2/1	*
*met(C|)	*	*met(C|)	*	*met(C|)	*	*met(C|)	*
=1-	=1-	=1-	=1-	=1-	=1-	=1-	=1-
!LO:TX:t=P:problem:przy kluczu BB- B-	!	!LO:TX:t=P:problem:kreska pseudotaktowa	!	!	!	!LO:TX:t=P:problem:przy kluczu B- b-	!
!	!	!LO:TX:a:t=Parte 2da.	!	!LO:TX:a:t=Parte 2da	!	!	!
!LO:TX:t=P:problem:Inicjał "O" na początku pięciolinii, przed kluczem	!	!LO:TX:t=P:problem:Inicjał "O" na początku pięciolinii, przed kluczem	!	!LO:TX:t=P:problem:Inicjał "O" na początku pięciolinii, przed kluczem	!	!LO:TX:t=P:problem:Inicjał "O" na początku pięciolinii, przed kluczem	!
!LO:TX:a:t=Parte 2da	!	!LO:TX:a:B:t=2dus ad aequales.	!	!LO:TX:a:B:t=1mus.	!	!LO:TX:a:B:t=Cantus ad AEquales.	!
00r	.	1rc	.	1c	O	00r	.
.	.	1F	O	1.f	Al-	.	.
=2-	=2-	=2-	=2-	=2-	=2-	=2-	=2-
.	.	1.c	al-	.	.	.	.
*	*	*	*	*2\right	*	*	*
!	!	!	!	!LO:TX:t=P:problem:kreska pseudotaktowa	!	!	!
.	.	.	.	2e\	-ti-	.	.
.	.	.	.	1d	-tu-	.	.
!	!	!LO:TX:t=P:problem:kreska pseudotaktowa	!	!	!	!	!
.	.	2B-/	-ti-	.	.	.	.
=3-	=3-	=3-	=3-	=3-	=3-	=3-	=3-
!LO:TX:t=P:problem:kreska pseudotaktowa	!	!	!	!	!	!	!
*	*	*lig	*	*	*	*	*
!	!	!	!	!LO:TX:t=P:problem:rozdzielacz słów:global	!	!	!
1r	.	1A	-tu-	2c,/	-do	0r	.
!	!	!	!	!LO:TX:t=P:problem:kreska pseudotaktowa	!	!	!
*	*	*	*	*	*ij	*	*
.	.	.	.	2f\	O	.	.
!	!LO:TX:t=P:problem:Iniciał "O" na początku pięciolinii, przed kluczem	!	!	!	!	!	!
1C	O	1G	.	2f\	Al-	.	.
.	.	.	.	2e\	-ti-	.	.
*	*	*Xlig	*	*	*	*	*
=4-	=4-	=4-	=4-	=4-	=4-	=4-	=4-
!	!	!LO:TX:t=P:problem:kreska pseudotaktowa	!	!	!	!LO:TX:t=P:problem:kreska pseudotaktowa	!
1.F	al-	1A	-do	2f\	-tu-	1r	.
!	!	!	!	!LO:TX:t=P:problem:kreska pseudotaktowa:między nutą a kropką	!	!	!
.	.	.	.	2.c/	-do	.	.
!	!	!	!	!	!	!LO:TX:t=P:problem:Iniciał "O" na początku pięciolinii, przed kluczem	!
.	.	1rc	.	.	.	1c	O
.	.	.	.	4B-/	.	.	.
!LO:TX:t=P:problem:kreska pseudotaktowa	!	!	!	!LO:TX:t=P:problem:kreska pseudotaktowa	!	!	!
2E/	-ti-	.	.	2G/	O	.	.
=5-	=5-	=5-	=5-	=5-	=5-	=5-	=5-
1D	-tu-	1F	O	2.A/	Al-	1.f	al-
.	.	.	.	4B-/	-ti-	.	.
!LO:TX:t=P:problem:kreska pseudotaktowa	!	!	!	!LO:TX:t=P:problem:kreska pseudotaktowa	!	!	!
1C	-do	1.c	al-	0G	-tu-	.	.
.	.	.	.	.	.	2e/	-ti-
=6-	=6-	=6-	=6-	=6-	=6-	=6-	=6-
!LO:TX:t=P:problem:kreska pseudotaktowa	!	!	!	!	!	!	!
1rF	.	.	.	.	.	1d	-tu-
!	!	!LO:TX:t=P:problem:kreska pseudotaktowa	!	!	!	!	!
.	.	2B-/	-ti-	.	.	.	.
*	*ij	*	*	*	*	*	*
!	!	!	!	!	!	!LO:TX:t=P:problem:kreska pseudotaktowa	!
1F	O	1A	-tu-	2A,/	-do	1c	-do
*	*	*	*	*	*Xij	*	*
!	!	!	!	!LO:TX:t=P:problem:kreska pseudotaktowa:między nutą a kropką	!	!	!
.	.	.	.	2.f\	O	.	.
=7-	=7-	=7-	=7-	=7-	=7-	=7-	=7-
1.B-	al-	2G/	-do	.	.	1r	.
!	!	!	!	!LO:TX:t=P:problem:4\right:global	!	!	!
.	.	.	.	4e\	.	.	.
*	*	*	*ij	*	*	*	*
.	.	1d	O	4d\	.	.	.
.	.	.	.	4c/	.	.	.
.	.	.	.	2B-/	.	1f	O
*2\right	*	*	*	*	*	*	*
!LO:TX:t=P:problem:kreska pseudotaktowa	!	!	!	!	!	!	!
!	!	!	!	!LO:TX:t=P:problem:kreska pseudotaktowa	!	!	!
2A\	-ti-	1f\	al-	2c/	al-	.	.
=8-	=8-	=8-	=8-	=8-	=8-	=8-	=8-
1G	-tu-	.	.	2d\	-ti-	1.b-	al-
!	!	!LO:TX:t=P:problem:kreska pseudotaktowa	!	!	!	!	!
*	*	*2\right	*	*	*	*	*
.	.	2e\	-ti-	2B-/	-tu-	.	.
!LO:TX:t=P:problem:kreska pseudotaktowa	!	!	!	!	!	!	!
1F	-do	1f	-tu-	2c/	.	.	.
*	*	*	*	*	*	*2\right	*
!	!	!	!	!LO:TX:t=P:problem:kreska pseudotaktowa:między nutą a kropką	!	!LO:TX:t=P:problem:kreska pseudotaktowa	!
*	*Xij	*	*	*	*	*	*
.	.	.	.	2.f\	.	2a\	-ti-
=9-	=9-	=9-	=9-	=9-	=9-	=9-	=9-
!	!	!LO:TX:t=P:problem:kreska pseudotaktowa	!	!	!	!	!
1r	.	1c	-do	.	.	1g	-tu-
!	!	!	!	!LO:TX:t=P:problem:8\right:global	!	!	!
.	.	.	.	8e\L	.	.	.
.	.	.	.	8d\J	.	.	.
!	!	!	!	!LO:TX:t=P:problem:kreska pseudotaktowa	!	!	!
!	!	!	!	!LO:SIC:v:t=custos f	!	!	!
.	.	.	.	2e\	.	.	.
!	!	!	!	!LO:LB:g=original	!	!LO:TX:t=P:problem:kreska pseudotaktowa	!
1F	O	2r	.	2f,\	-do	1f	-do
!	!	!	!	!LO:TX:t=P:problem:kreska pseudotaktowa	!	!	!
.	.	1c\	O	2a\	O	.	.
=10-	=10-	=10-	=10-	=10-	=10-	=10-	=10-
1.c	al-	.	.	2.g\	.	1r	.
.	.	2.e\	al-	.	.	.	.
!	!	!	!	!LO:TX:t=P:problem:kreska pseudotaktowa	!	!	!
.	.	.	.	4f\	al-	.	.
*	*	*	*	*	*	*	*ij
.	.	.	.	2e\	.	1g	O
!	!	!LO:TX:t=P:problem:4\right:global	!	!	!	!	!
.	.	4f\	-ti-	.	.	.	.
!LO:TX:t=P:problem:kreska pseudotaktowa	!	!	!	!	!	!	!
2B-\	-ti-	1g\	-tu-	2d\	-ti-	.	.
=11-	=11-	=11-	=11-	=11-	=11-	=11-	=11-
1A	-tu-	.	.	1c	-tu-	1.cc	al-
!	!	!LO:TX:t=P:problem:kreska pseudotaktowa	!	!	!	!	!
.	.	2f\	.	.	.	.	.
2G\	-do	1g	.	2d\	-do	.	.
!LO:TX:t=P:problem:kreska pseudotaktowa	!	!	!	!LO:TX:t=P:problem:kreska pseudotaktowa	!	!LO:TX:t=P:problem:kreska pseudotaktowa	!
2G\	di-	.	.	2d\	di-	2b-\	-ti-
=12-	=12-	=12-	=12-	=12-	=12-	=12-	=12-
!	!	!LO:TX:t=P:problem:rozdzielacz słów:global	!	!	!	!	!
2A\	-ui-	2e,\	-do	2c/	-ui-	1a	-tu-
*	*	*	*Xij	*	*	*	*
!	!	!LO:SIC:v:t=custos d	!	!	!	!	!
2F/	-ti-	2f\	di-	2A/	-ti-	.	.
!	!	!LO:LB:g=original	!	!	!	!	!
*lig	*	*	*	*	*	*	*
1G	-a-	2d\	-ui-	4B-/	-a-	2g\	-do
*	*	*	*	*	*	*	*Xij
.	.	.	.	4c/	.	.	.
!	!	!	!	!	!	!LO:TX:t=P:problem:kreska pseudotaktowa	!
.	.	2B-/	-ti-	4d\	.	2g\	di-
!	!	!	!	!LO:TX:t=P:problem:kreska pseudotaktowa	!	!	!
.	.	.	.	4e\	.	.	.
=13-	=13-	=13-	=13-	=13-	=13-	=13-	=13-
!LO:TX:t=P:problem:kreska pseudotaktowa	!	!	!	!	!	!	!
1F	.	0c	-a-	4f\	.	2a\	-ui-
.	.	.	.	4c/	.	.	.
.	.	.	.	1f	.	2f\	-ti-
*Xlig	*	*	*	*	*	*	*
!	!	!	!	!	!	!LO:TX:t=P:problem:kreska pseudotaktowa	!
2C/	-ru(m)	.	.	.	.	1g	-a-
!	!	!	!	!LO:TX:t=P:problem:kreska pseudotaktowa	!	!	!
1c\	Sa-	.	.	2e\	.	.	.
=14-	=14-	=14-	=14-	=14-	=14-	=14-	=14-
!	!	!LO:TX:t=P:problem:kreska pseudotaktowa	!	!LO:TX:t=P:problem:kreska pseudotaktowa	!	!	!
.	.	1F	-rum	1f	-rum	2f\	-rum
!LO:TX:t=P:problem:kreska pseudotaktowa	!	!	!	!	!	!	!
!LO:SIC:v:t=custos c	!	!	!	!	!	!	!
2d\	-pi-	.	.	.	.	1a	Sa-
!LO:LB:g=original	!	!	!	!	!	!	!
2c\	-en-	1rc	.	0r	.	.	.
!	!	!	!	!	!	!LO:TX:t=P:problem:kreska pseudotaktowa	!
!	!	!	!	!	!	!LO:SIC:v:t=custos a	!
2B-\	-ti-	.	.	.	.	2g\	-pi-
!	!	!	!	!	!	!LO:LB:g=original	!
=15-	=15-	=15-	=15-	=15-	=15-	=15-	=15-
!LO:TX:t=P:problem:kreska pseudotaktowa	!	!	!	!	!	!	!
1A	-ae	2rA	.	.	.	2a\	-en-
.	.	1c	Sa-	.	.	2f\	-ti-
!	!	!	!	!	!	!LO:TX:t=P:problem:rozdzielacz słów:global	!
0r	.	.	.	2r	.	2e,/	-ae
!	!	!LO:TX:t=P:problem:kreska pseudotaktowa	!	!	!	!LO:TX:t=P:problem:kreska pseudotaktowa	!
.	.	2d\	-pi-	1a\	Sa-	2f\	et
=16-	=16-	=16-	=16-	=16-	=16-	=16-	=16-
.	.	2c/	-en-	.	.	2e/	Sci-
!	!	!	!	!LO:TX:t=P:problem:kreska pseudotaktowa	!	!	!
.	.	2B-/	-ti-	2g\	-pi-	2d/	-en-
2r	.	1A	-ae	2a\	-en-	2e/	-ti-
1c\	Sa-	.	.	2f\	-ti-	2.a\	-ae
=17-	=17-	=17-	=17-	=17-	=17-	=17-	=17-
.	.	0r	.	2e,\	-ae	.	.
!	!	!	!	!	!	!LO:TX:t=P:problem:4\right:global	!
.	.	.	.	.	.	4g\	.
!LO:TX:t=P:problem:kreska pseudotaktowa	!	!	!	!LO:TX:t=P:problem:kreska pseudotaktowa	!	!LO:TX:t=P:problem:kreska pseudotaktowa	!
2d\	-pi-	.	.	2f\	et	2b-X\	De-
2c\	-en-	.	.	2e\	Sci-	2a\	.
2B-\	-ti-	.	.	2d\	-en-	2g\	-i
=18-	=18-	=18-	=18-	=18-	=18-	=18-	=18-
!LO:TX:t=P:problem:kreska pseudotaktowa	!	!	!	!	!	!LO:TX:t=P:problem:kreska pseudotaktowa	!
1A	-ae	2r	.	2e\	-ti-	1a	.
!	!	!	!	!LO:TX:t=P:problem:kreska pseudotaktowa	!	!	!
.	.	1c	Sa-	2f\	-ae	.	.
2r	.	.	.	2g\	De-	1rg	.
*	*ij	*	*	*	*	*	*
!	!	!LO:TX:t=P:problem:kreska pseudotaktowa	!	!	!	!	!
1F\	Sa-	2d\	-pi-	2.f\	.	.	.
=19-	=19-	=19-	=19-	=19-	=19-	=19-	=19-
!	!	!	!	!	!	!LO:TX:t=P:problem:kreska pseudotaktowa	!
.	.	2c/	-en-	.	.	0rg	.
!	!	!	!	!LO:SIC:v:t=custos d	!	!	!
.	.	.	.	4e\	.	.	.
!	!	!	!	!LO:LB:g=original	!	!	!
2G\	-pi-	2B-/	-ti-	1d	.	.	.
2F/	-en-	2A,/	-ae,	.	.	.	.
!	!	!LO:TX:t=P:problem:kreska pseudotaktowa	!	!LO:TX:t=P:problem:kreska pseudotaktowa	!	!	!
2E/	-ti-	2G/	et	2c/	.	.	.
=20-	=20-	=20-	=20-	=20-	=20-	=20-	=20-
!LO:TX:t=P:problem:kreska pseudotaktowa	!	!	!	!	!	!	!
1D	-ae	2A/	Sci-	2d\	.	1.a	et
*	*Xij	*	*	*	*	*	*
.	.	1d	-en-	2f\	.	.	.
!	!	!	!	!LO:TX:t=P:problem:kreska pseudotaktowa	!	!	!
1.A	et	.	.	1e	-i	.	.
.	.	4c/	.	.	.	2a\	Sci-
!	!	!LO:TX:t=P:problem:kreska pseudotaktowa	!	!	!	!	!
.	.	4B-/	.	.	.	.	.
=21-	=21-	=21-	=21-	=21-	=21-	=21-	=21-
.	.	2c/	.	1r	.	2f\	-en-
!	!	!	!	!	!	!LO:TX:t=P:problem:kreska pseudotaktowa	!
2G\	Sci-	2B-/	.	.	.	2g\	-ti-
2F/	-en-	2A/	.	2r	.	4a\	-ae
.	.	.	.	.	.	4f\	.
!LO:TX:t=P:problem:kreska pseudotaktowa	!	!	!	!	!	!	!
2E/	-ti-	2G/	.	1c\	et	2.g\	De-
=22-	=22-	=22-	=22-	=22-	=22-	=22-	=22-
!LO:TX:t=P:problem:rozdzielacz słów:global	!	!	!	!	!	!	!
1D,	-ae	2A/	.	.	.	.	.
.	.	.	.	.	.	4f\	.
!	!	!	!	!LO:TX:t=P:problem:kreska pseudotaktowa	!	!	!
.	.	4G/	-ti-	2B-/	Sci-	1f	.
.	.	4F/	-ae	.	.	.	.
1C	De-	1G	De-	2c/	-en-	.	.
.	.	.	.	2c/	-ti-	2e/	.
=23-	=23-	=23-	=23-	=23-	=23-	=23-	=23-
!LO:TX:t=P:problem:kreska pseudotaktowa	!	!LO:TX:t=P:problem:kreska pseudotaktowa	!	!LO:TX:t=P:problem:kreska pseudotaktowa	!	!LO:TX:t=P:problem:kreska pseudotaktowa	!
1F	-i.	1F	-i,	1A,	-ae	1f	-i
*	*	*	*	*	*ij	*	*
00r	.	1.f	et	1.d	et	2rg	.
*	*	*	*	*	*	*	*ij
.	.	.	.	.	.	1a\	et
=24-	=24-	=24-	=24-	=24-	=24-	=24-	=24-
.	.	.	.	.	.	.	.
!	!	!LO:SIC:v:t=custos d	!	!LO:TX:t=P:problem:kreska pseudotaktowa	!	!LO:TX:t=P:problem:kreska pseudotaktowa	!
.	.	2e\	Sci-	2c/	Sci-	2a\	Sci-
!	!	!LO:LB:g=original	!	!	!	!	!
.	.	2d\	-en-	2f\	-en-	2a\	-en-
.	.	2c/	-ti-	2e\	-ti-	2a\	-ti-
=25-	=25-	=25-	=25-	=25-	=25-	=25-	=25-
.	.	1d	-ae	1f	-ae	2b-\	-ae
*	*	*	*	*	*Xij	*	*
.	.	.	.	.	.	1a	De-
!LO:TX:t=P:problem:kreska pseudotaktowa	!	!	!	!	!	!	!
0r	.	1B-	De-	1d	De-	.	.
!	!	!	!	!	!	!LO:TX:t=P:problem:kreska pseudotaktowa	!
!	!	!	!	!	!	!LO:SIC:v:t=custos a	!
.	.	.	.	.	.	2g\	.
!	!	!	!	!	!	!LO:LB:g=original	!
=26-	=26-	=26-	=26-	=26-	=26-	=26-	=26-
!	!	!	!	!LO:TX:t=P:problem:kreska pseudotaktowa	!	!LO:TX:t=P:problem:kreska pseudotaktowa	!
.	.	1c,	-i.	1e,	-i	1a,	-i
*	*	*	*	*	*	*	*Xij
0C	quám	0c	quám	0e	quàm	0g	quám
=27-	=27-	=27-	=27-	=27-	=27-	=27-	=27-
.	.	.	.	.	.	.	.
!LO:TX:t=P:problem:kreska pseudotaktowa	!	!	!	!	!	!	!
1C	in-	1c	in-	1e	in-	1g	in-
=28-	=28-	=28-	=28-	=28-	=28-	=28-	=28-
!	!	!	!	!LO:TX:t=P:problem:kreska pseudotaktowa	!	!LO:TX:t=P:problem:kreska pseudotaktowa	!
1F	-com-	1c	-com-	1f	-com-	1a	-com-
!LO:TX:t=P:problem:kreska pseudotaktowa	!	!	!	!	!	!	!
!LO:SIC:v:t=custos E	!	!	!	!	!	!	!
1B-	-pre-	1d	-pre-	1f	-pre-	1b-	-pre-
!LO:LB:b=original	!	!	!	!	!	!	!
=29-	=29-	=29-	=29-	=29-	=29-	=29-	=29-
1.E	-hen-	1.e-X	-hen-	1.g	-hen-	1.b-	-hen-
!LO:TX:t=P:problem:kreska pseudotaktowa	!	!	!	!LO:TX:t=P:problem:kreska pseudotaktowa	!	!	!
2E/	-si-	2e-\	-si-	2g\	-ſi-	2b-\	-ſi-
=30-	=30-	=30-	=30-	=30-	=30-	=30-	=30-
!	!	!	!	!	!	!LO:TX:t=P:problem:kreska pseudotaktowa	!
1B-	-bi-	1d	-bi-	1f	-bi-	1b-	-bi-
1F	-li-	1c	-li-	1f	-li-	1a	-li-
=31-	=31-	=31-	=31-	=31-	=31-	=31-	=31-
!	!	!LO:TX:t=P:problem:kreska pseudotaktowa	!	!	!	!	!
!LO:TX:t=P:problem:kreska pseudotaktowa	!	!LO:N:acc=#	!	!LO:TX:t=P:problem:kreska pseudotaktowa	!	!	!
1G	-a	1Bn	-a	1d	-a	1g	-a
!	!	!	!	!	!	!LO:TX:t=P:problem:kreska pseudotaktowa	!
2C,/	sunt	2c/	Sunt	1e	sunt	1g	sunt
!LO:TX:t=P:problem:kreska pseudotaktowa	!	!	!	!	!	!	!
2C/	iu-	2G/	iu-	.	.	.	.
=32-	=32-	=32-	=32-	=32-	=32-	=32-	=32-
2F/	-di-	2A/	-di-	2f\	iu-	1rg	.
!	!	!LO:TX:t=P:problem:kreska pseudotaktowa	!	!	!	!	!
!	!	!LO:N:acc=#	!	!	!	!	!
2G\	-ci-	2Bn/	-ci-	2.e\	-di-	.	.
!LO:TX:t=P:problem:kreska pseudotaktowa	!	!	!	!	!	!	!
1A	-a	1c	-a	.	.	1a	iu-
!	!	!	!	!LO:TX:t=P:problem:kreska pseudotaktowa	!	!	!
!	!	!	!	!LO:SIC:v:t=custos f	!	!	!
.	.	.	.	4e\	-ci-	.	.
!	!	!	!	!LO:LB:g=original	!	!	!
!	!	!	!	!LO:TX:t=P:problem:kreska pseudotaktowa:między nutą a kropką	!	!	!
.	.	.	.	2.f\	-a	.	.
=33-	=33-	=33-	=33-	=33-	=33-	=33-	=33-
2.B-\	e-	2d\	e-	.	.	1f	-di-
.	.	.	.	4e\	.	.	.
.	.	1f	.	4d\	.	.	.
!	!	!	!	!LO:TX:t=P:problem:kreska pseudotaktowa	!	!	!
4A\	.	.	.	4c/	.	.	.
1G	.	.	.	1B-	.	2g\	-ci-
!	!	!LO:TX:t=P:problem:kreska pseudotaktowa	!	!	!	!LO:TX:t=P:problem:kreska pseudotaktowa	!
.	.	2eny\	.	.	.	2g\	-a
=34-	=34-	=34-	=34-	=34-	=34-	=34-	=34-
!LO:TX:t=P:problem:kreska pseudotaktowa	!	!	!	!	!	!	!
1F	-ius	2f\	ius	2c/	.	1a	e-
.	.	2c/	.	1f	e-	.	.
2rD	.	1c	iu-	.	.	2g\	-ius
!	!	!	!	!LO:TX:t=P:problem:kreska pseudotaktowa	!	!LO:TX:t=P:problem:kreska pseudotaktowa	!
*	*	*	*	*	*	*	*ij
2C/	iu-	.	.	2e\	.	2cc\	iu-
=35-	=35-	=35-	=35-	=35-	=35-	=35-	=35-
2F/	-di-	2A/	-di-	2f,\	-ius	2cc\	-di-
!LO:TX:t=P:problem:kreska pseudotaktowa	!	!LO:TX:t=P:problem:kreska pseudotaktowa	!	!	!	!	!
2G\	-ci-	2B-y/	-ci-	2d\	iu-	2b-\	-ci-
!	!	!LO:SIC:v:t=custos f	!	!	!	!	!
1A	-a	2c/	-a	2f\	-di-	1a	-a
!	!	!LO:LB:g=original	!	!LO:TX:t=P:problem:kreska pseudotaktowa	!	!	!
.	.	2.f\	e-	2c/	-ci-	.	.
=36-	=36-	=36-	=36-	=36-	=36-	=36-	=36-
*	*	*	*	*	*	*lig	*
0B-	e-	.	.	0d	-a	1f	e-
.	.	4e\	.	.	.	.	.
.	.	4d\	.	.	.	.	.
!	!	!LO:TX:t=P:problem:kreska pseudotaktowa	!	!	!	!	!
.	.	4c/	.	.	.	.	.
!	!	!	!	!	!	!LO:TX:t=P:problem:kreska pseudotaktowa	!
.	.	1d	.	.	.	1g	.
*	*	*	*	*	*	*Xlig	*
=37-	=37-	=37-	=37-	=37-	=37-	=37-	=37-
!LO:TX:t=P:problem:kreska pseudotaktowa	!	!	!	!	!	!	!
1A	-ius	2c,/	-ius	2e\	e-	2a,\	-ius
*	*	*	*	*	*	*	*Xij
.	.	2A/	iu-	1f	.	2a\	iu-
0r	.	1B-	-di-	.	.	2f\	-di-
!	!	!	!	!	!	!LO:TX:t=P:problem:kreska pseudotaktowa	!
.	.	.	.	4e\	.	2g\	-ci-
!	!	!	!	!LO:TX:t=P:problem:kreska pseudotaktowa	!	!	!
.	.	.	.	4d\	.	.	.
=38-	=38-	=38-	=38-	=38-	=38-	=38-	=38-
.	.	2A/	-ci-	2e\	.	1a	-a
.	.	2F/	-a	1f	.	.	.
!LO:TX:t=P:problem:kreska pseudotaktowa	!	!	!	!	!	!	!
1r	.	1G	e-	.	.	1b-	e-
!	!	!	!	!LO:TX:t=P:problem:kreska pseudotaktowa	!	!	!
.	.	.	.	2e\	.	.	.
=39-	=39-	=39-	=39-	=39-	=39-	=39-	=39-
!	!	!LO:TX:t=P:problem:kreska pseudotaktowa	!	!	!	!LO:TX:t=P:problem:kreska pseudotaktowa	!
!	!	!	!	!	!	!LO:SIC:v:t=custos cc	!
2c\	et	1F	-ius	2.f\	.	1a	-ius
!LO:TX:t=P:problem:4\right:global	!	!	!	!	!	!	!
4c\	in-	.	.	.	.	.	.
!LO:TX:t=P:problem:kreska pseudotaktowa	!	!	!	!	!	!	!
4B-\	-ue-	.	.	4e\	.	.	.
!	!	!	!	!	!	!LO:LB:g=original	!
2A\	-ſti-	0rB	.	4c/	.	2cc\	et
.	.	.	.	4d\	.	.	.
!LO:TX:t=P:problem:kreska pseudotaktowa	!	!	!	!LO:TX:t=P:problem:kreska pseudotaktowa	!	!	!
2G\	-ga-	.	.	2e\	.	4cc\	in-
.	.	.	.	.	.	4b-\	-ue-
=40-	=40-	=40-	=40-	=40-	=40-	=40-	=40-
2F/	-bi-	.	.	4f\	.	2a\	-sti-
.	.	.	.	4e\	.	.	.
!LO:TX:t=P:problem:kreska pseudotaktowa	!	!	!	!	!	!LO:TX:t=P:problem:kreska pseudotaktowa	!
2G\	.	.	.	4d\	.	2g\	-ga-
!	!	!	!	!LO:TX:t=P:problem:kreska pseudotaktowa	!	!	!
.	.	.	.	4c/	.	.	.
!LO:TX:t=P:problem:kreska pseudotaktowa	!	!	!	!	!	!	!
!LO:SIC:v:t=custos F	!	!	!	!	!	!	!
1D	-les	2f\	et	1d,	-ius	2f\	-bi-
!	!	!	!	!	!	!LO:TX:t=P:problem:kreska pseudotaktowa	!
.	.	(>4f\	in-	.	.	2d/	-les
!	!	!LO:TX:t=P:problem:kreska pseudotaktowa	!	!	!	!	!
.	.	4e\)	.	.	.	.	.
!LO:LB:g=original	!	!	!	!	!	!	!
=41-	=41-	=41-	=41-	=41-	=41-	=41-	=41-
!LO:TX:t=P:problem:kreska pseudotaktowa	!	!	!	!	!	!	!
00r	.	2d\	-ue-	2f\	et	1a	Vi-
.	.	2c/	-ſti-	4f\	in-	.	.
!	!	!	!	!LO:TX:t=P:problem:kreska pseudotaktowa	!	!	!
!	!	!	!	!LO:SIC:v:t=custos d	!	!	!
.	.	.	.	4e\	-ue-	.	.
!	!	!	!	!LO:LB:g=original	!	!	!
.	.	2B-/	-ga-	2d\	-sti-	2g\	-ae
!	!	!	!	!LO:TX:t=P:problem:kreska pseudotaktowa	!	!	!
.	.	2c/	-bi-	2c/	-ga-	2.g\	e-
=42-	=42-	=42-	=42-	=42-	=42-	=42-	=42-
.	.	2G,/	-les	2B-/	.	.	.
.	.	.	.	.	.	4f\	.
!	!	!	!	!LO:TX:t=P:problem:kreska pseudotaktowa	!	!LO:TX:t=P:problem:kreska pseudotaktowa	!
.	.	2.c/	Vi-	2c/	.	2e/	.
.	.	.	.	1G	.	1d	.
.	.	4B-/	-ae	.	.	.	.
!	!	!LO:TX:t=P:problem:kreska pseudotaktowa	!	!	!	!	!
.	.	2B-/	e-	.	.	.	.
=43-	=43-	=43-	=43-	=43-	=43-	=43-	=43-
*	*ij	*	*	*	*	*	*
!	!	!	!	!	!	!LO:TX:t=P:problem:kreska pseudotaktowa	!
2F/	et	1c,	-ius	2.A/	.	1c	-ius
4F/	in-	.	.	.	.	.	.
!LO:TX:t=P:problem:kreska pseudotaktowa	!	!	!	!	!	!	!
4E/	-ue-	.	.	8G/L	.	.	.
!	!	!	!	!LO:TX:t=P:problem:kreska pseudotaktowa	!	!	!
.	.	.	.	8A/J	.	.	.
2D/	-ſti-	2f\	et	2B-/	.	0r	.
!LO:TX:t=P:problem:kreska pseudotaktowa	!	!	!	!	!	!	!
2C/	-ga-	(>4f\	in-	2c/	.	.	.
.	.	4e\)	-ue-	.	.	.	.
=44-	=44-	=44-	=44-	=44-	=44-	=44-	=44-
2D/	-bi-	2d\	-ſti-	2A/	.	.	.
!	!	!	!	!LO:TX:t=P:problem:kreska pseudotaktowa	!	!	!
2BB-/	.	1f	-ga-	2B-/	bi-	.	.
!LO:TX:t=P:problem:kreska pseudotaktowa	!	!	!	!	!	!	!
1C	-les	.	.	2.G/	.	2cc\	et
*	*Xij	*	*	*	*	*	*
.	.	2e\	-bi-	.	.	(>4cc\	in-
!	!	!	!	!	!	!LO:TX:t=P:problem:kreska pseudotaktowa	!
.	.	.	.	4G/	.	4b-\)	.
=45-	=45-	=45-	=45-	=45-	=45-	=45-	=45-
!	!	!	!	!LO:TX:t=P:problem:kreska pseudotaktowa	!	!	!
1rF	.	1f,	-les	1F	-les	2a\	-ue-
.	.	.	.	.	.	2f\	-ſti-
*	*	*	*ij	*	*	*	*
2c\	et	2e\	et	2r	.	2g\	-ga-
!	!	!	!	!	!	!LO:TX:t=P:problem:kreska pseudotaktowa	!
(>4c\	in-	4e\	in-	2.c/	et	2g\	-bi-
!LO:TX:t=P:problem:kreska pseudotaktowa	!	!LO:SIC:v:t=custos c	!	!	!	!	!
4B-\)	.	4d\	.	.	.	.	.
!	!	!LO:LB:g=original	!	!	!	!	!
=46-	=46-	=46-	=46-	=46-	=46-	=46-	=46-
2A\	-ue-	2c/	-ue-	.	.	2a\	-les
.	.	.	.	4c/	in-	.	.
!	!	!	!	!LO:TX:t=P:problem:kreska pseudotaktowa	!	!	!
2G\	-ſti-	2B-/	-ſti-	2d\	-ue-	2.b-\	Vi-
2A\	-ga-	2c/	-ga-	2c/	-sti-	.	.
.	.	.	.	.	.	4a\	-ae
!	!	!LO:TX:t=P:problem:kreska pseudotaktowa	!	!	!	!	!
2F/	-bi-	2A/	-bi-	1f\	-ga-	1a\	e-
=47-	=47-	=47-	=47-	=47-	=47-	=47-	=47-
!LO:TX:t=P:problem:kreska pseudotaktowa	!	!	!	!	!	!	!
1G	-les	1B-	-les	.	.	.	.
!	!	!	!	!LO:TX:t=P:problem:kreska pseudotaktowa	!	!LO:TX:t=P:problem:kreska pseudotaktowa	!
.	.	.	.	2e\	-bi-	2g\	.
2F/	Vi-	2c/	et	2f\	.	2a\	-ius
2C/	-ae	4c/	in-	2e\	.	2.g\	Vi-
!	!	!LO:TX:t=P:problem:kreska pseudotaktowa	!	!	!	!	!
.	.	4B-/	.	.	.	.	.
=48-	=48-	=48-	=48-	=48-	=48-	=48-	=48-
!	!	!	!	!LO:TX:t=P:problem:kreska pseudotaktowa	!	!	!
2D/	e-	2A/	-ue-	1d,	-les	.	.
.	.	.	.	.	.	4f\	ae
2BB-/	.	2B-/	-ſti-	.	.	1f	e-
*	*	*	*	*	*ij	*	*
!LO:TX:t=P:problem:kreska pseudotaktowa	!	!	!	!	!	!	!
1C,	-ius	2G/	-ga-	2c/	et	.	.
.	.	2G/	-bi-	4c/	in-	2e/	.
!	!	!	!	!LO:TX:t=P:problem:kreska pseudotaktowa	!	!	!
.	.	.	.	4B-/	.	.	.
=49-	=49-	=49-	=49-	=49-	=49-	=49-	=49-
!	!	!	!	!	!	!LO:TX:t=P:problem:kreska pseudotaktowa	!
!	!	!LO:TX:t=P:problem:kreska pseudotaktowa	!	!	!	!LO:SIC:v:t=custos cc	!
2c\	et	1F	-les	2.A/	-ue-	1f	-ius
*	*	*	*Xij	*	*	*	*
(>4c\	in-	.	.	.	.	.	.
!	!	!	!	!LO:TX:t=P:problem:kreska pseudotaktowa	!	!	!
4B-\)	.	.	.	4B-/	sti-	.	.
!	!	!	!	!	!	!LO:LB:g=original	!
2A\	-ue-	1rc	.	2c/	-ga-	2cc\	et
!LO:TX:t=P:problem:kreska pseudotaktowa	!	!	!	!	!	!	!
2G\	-ſti-	.	.	2d\	-bi-	(>4cc\	in-
!	!	!	!	!	!	!LO:TX:t=P:problem:kreska pseudotaktowa	!
.	.	.	.	.	.	4b-\)	.
=50-	=50-	=50-	=50-	=50-	=50-	=50-	=50-
2A\	-ga-	2f\	et	2c,/	-les	2a\	-ue-
*	*	*	*	*	*Xij	*	*
!	!	!	!	!LO:TX:t=P:problem:kreska pseudotaktowa	!	!	!
!	!	!	!	!LO:SIC:v:t=custos B-	!	!LO:TX:t=P:problem:kreska pseudotaktowa	!
2F/	-bi-	(>4f\	in-	2c/	Vi-	2a\	-ſti-
!	!	!LO:TX:t=P:problem:kreska pseudotaktowa	!	!	!	!	!
.	.	4e\)	.	.	.	.	.
!	!	!	!	!LO:LB:g=original	!	!	!
!LO:TX:t=P:problem:kreska pseudotaktowa	!	!	!	!	!	!	!
1G,	-les	2d\	-ue-	4B-/	-ae	2b-\	-ga-
.	.	.	.	4c/	.	.	.
.	.	2B-/	-ſti-	4d\	.	2g\	-bi-
!	!	!	!	!LO:TX:t=P:problem:kreska pseudotaktowa	!	!	!
.	.	.	.	4e\	.	.	.
=51-	=51-	=51-	=51-	=51-	=51-	=51-	=51-
*	*ij	*	*	*	*	*	*
2F/	et	2.c/	-ga-	2f,\	.	2a\	-les
4F/	in-	.	.	2.f\	e-	1a	Vi-
!LO:TX:t=P:problem:kreska pseudotaktowa	!	!	!	!	!	!	!
!LO:SIC:v:t=custos D	!	!LO:TX:t=P:problem:kreska pseudotaktowa	!	!	!	!	!
4E/	.	4c/	-bi-	.	.	.	.
!LO:LB:g=original	!	!	!	!	!	!	!
2D/	-ue-	2d\	-les	.	.	.	.
.	.	.	.	4e\	.	.	.
!	!	!	!	!LO:TX:t=P:problem:kreska pseudotaktowa	!	!	!
2BB-/	-ſti-	1f\	Vi-	2.d\	.	2b-\	-ae
=52-	=52-	=52-	=52-	=52-	=52-	=52-	=52-
2C/	-ga-	.	.	.	.	0g	e-
.	.	.	.	4c/	.	.	.
!LO:TX:t=P:problem:kreska pseudotaktowa	!	!	!	!	!	!	!
2C/	-bi-	2e\	-ae	1c	.	.	.
!	!	!LO:TX:t=P:problem:kreska pseudotaktowa	!	!	!	!	!
1G,	-les	1d	e-	.	.	.	.
*	*Xij	*	*	*	*	*	*
!	!	!	!	!LO:TX:t=P:problem:kreska pseudotaktowa	!	!	!
.	.	.	.	2B-/	-ius	.	.
=53-	=53-	=53-	=53-	=53-	=53-	=53-	=53-
!	!	!	!	!	!	!LO:TX:t=P:problem:kreska pseudotaktowa	!
2A\	et	00c\	.	2c/	.	1e,	-ius
4A\	in-	.	.	1A	Vi-	.	.
!LO:TX:t=P:problem:kreska pseudotaktowa	!	!	!	!	!	!	!
4G\	.	.	.	.	.	.	.
2F/	-ue-	.	.	.	.	2cc\	et
!	!	!	!	!LO:TX:t=P:problem:kreska pseudotaktowa	!	!	!
2E/	-ſti-	.	.	2G/	-ae	(>4cc\	in-
.	.	.	.	.	.	4b-\)	.
=54-	=54-	=54-	=54-	=54-	=54-	=54-	=54-
2F/	-ga-	.	.	4A/	e-	2a\	-ue-
.	.	.	.	4F/	.	.	.
!	!	!	!	!	!	!LO:TX:t=P:problem:kreska pseudotaktowa	!
2F/	-bi-	.	.	1f	.	2f\	-ſti-
!LO:TX:t=P:problem:kreska pseudotaktowa	!	!	!	!	!	!	!
1C	-les	.	.	.	.	2g\	-ga-
!	!	!	!	!LO:TX:t=P:problem:kreska pseudotaktowa	!	!	!
.	.	.	.	2e\	.	2g\	-bi-
=55-	=55-	=55-	=55-	=55-	=55-	=55-	=55-
1.F	Vi-	0c	-ius.	2f\	-ius	2a\	-les
.	.	.	.	1a	Vi-	1f	Vi-
!	!	!	!	!LO:TX:t=P:problem:kreska pseudotaktowa	!	!	!
2E/	-ae	.	.	2g\	-ae	2g\	-ae
=56-	=56-	=56-	=56-	=56-	=56-	=56-	=56-
0F	e-	[0c\l;;	.	0f	e-	0a	e-
=57-	=57-	=57-	=57-	=57-	=57-	=57-	=57-
!LO:TX:t=P:problem:napis na pięciolinii za kreską	!	!LO:TX:t=P:problem:napis na pięciolinii za kreską	!	!LO:TX:t=P:problem:napis na pięciolinii za kreską	!	!LO:TX:t=P:problem:napis "a 4." na pięciolinii za kreską	!
!LO:TX:a:B:t=ad aequales. ā 4.	!	!LO:TX:a:t=A. M. D. G.\n1663. 4. lõbris.	!	!LO:TX:a:t=A. M. D. G.\n1663. 4 lõbris	!	!LO:TX:a:t=a 4.	!
0Cl	-ius.	0c]	.	0el	-ius	0gl	-ius.
=-	=-	=-	=-	=-	=-	=-	=-
*-	*-	*-	*-	*-	*-	*-	*-
!!!system-decoration: [(s1,s2,s3,s4)]
!!!RDF**kern: > = above
!!!RDF**kern: < = below
!!!RDF**kern: l = terminal long
!!!EED: Mateusz Mrugas
!!!EST: 2021-03-18
!!!ENC: Andrzej Kubiczek
!!!END: 2021-03-03
